map_marker_monochrome/openmoji_robot.svg

<svg xmlns="http://www.w3.org/2000/svg" width="24" height="24" viewBox="0 0 24 24"> <g transform="scale(0.333333333)">  <g id="line">
    <path fill="none" stroke="#000000" stroke-linecap="round" stroke-linejoin="round" stroke-miterlimit="2" stroke-width="2" d="M34,16.0109V13.5c0-1.3807,1.1193-2.5,2.5-2.5l0,0c1.3807,0,2.5,1.1193,2.5,2.5V16"/>
    <path fill="none" stroke="#000000" stroke-linecap="round" stroke-linejoin="round" stroke-miterlimit="2" stroke-width="2" d="M47.4505,56h-22.901C19.8473,56,16,52.1527,16,47.4505v-22.901C16,19.8473,19.8473,16,24.5495,16h22.901 C52.1527,16,56,19.8473,56,24.5495v22.901C56,52.1527,52.1527,56,47.4505,56z"/>
    <ellipse cx="44.8346" cy="29.0022" rx="2.8338" ry="2.8338" fill="none" stroke="#000000" stroke-linecap="round" stroke-linejoin="round" stroke-miterlimit="2" stroke-width="2"/>
    <ellipse cx="27.3342" cy="29.0017" rx="2.8338" ry="2.8338" fill="none" stroke="#000000" stroke-linecap="round" stroke-linejoin="round" stroke-miterlimit="2" stroke-width="2"/>
    <path fill="none" stroke="#000000" stroke-miterlimit="2" stroke-width="2" d="M44.5,47.5h-17c-2.2,0-4-1.8-4-4l0,0 c0-2.2,1.8-4,4-4h17c2.2,0,4,1.8,4,4l0,0C48.5,45.7,46.7,47.5,44.5,47.5z"/>
    <path fill="none" stroke="#000000" stroke-linecap="round" stroke-linejoin="round" stroke-miterlimit="2" stroke-width="2" d="M13.5,41L13.5,41c-1.3807,0-2.5-1.1193-2.5-2.5v-8c0-1.3807,1.1193-2.5,2.5-2.5l0,0c1.3807,0,2.5,1.1193,2.5,2.5v8 C16,39.8807,14.8807,41,13.5,41z"/>
    <path fill="none" stroke="#000000" stroke-linecap="round" stroke-linejoin="round" stroke-miterlimit="2" stroke-width="2" d="M58.5,41L58.5,41c1.3807,0,2.5-1.1193,2.5-2.5v-8c0-1.3807-1.1193-2.5-2.5-2.5l0,0c-1.3807,0-2.5,1.1193-2.5,2.5v8 C56,39.8807,57.1193,41,58.5,41z"/>
    <line x1="28" x2="28" y1="40" y2="47" fill="none" stroke="#000000" stroke-linecap="round" stroke-linejoin="round" stroke-miterlimit="2" stroke-width="2"/>
    <line x1="33" x2="33" y1="40" y2="47" fill="none" stroke="#000000" stroke-linecap="round" stroke-linejoin="round" stroke-miterlimit="2" stroke-width="2"/>
    <line x1="38" x2="38" y1="40" y2="47" fill="none" stroke="#000000" stroke-linecap="round" stroke-linejoin="round" stroke-miterlimit="2" stroke-width="2"/>
    <line x1="43" x2="43" y1="40" y2="47" fill="none" stroke="#000000" stroke-linecap="round" stroke-linejoin="round" stroke-miterlimit="2" stroke-width="2"/>
  </g></g></svg>

<svg xmlns="http://www.w3.org/2000/svg" width="24" height="24" viewBox="0 0 24 24"> <g transform="translate(0.0 1.1538461538461533) scale(0.46153846153846156)">
  
  <g
     id="line"
     transform="translate(-10,-10)">
    <path
       fill="none"
       stroke="#000"
       stroke-linecap="round"
       stroke-linejoin="round"
       stroke-miterlimit="2"
       stroke-width="2"
       d="M 34,16.0109 V 13.5 C 34,12.1193 35.1193,11 36.5,11 v 0 c 1.3807,0 2.5,1.1193 2.5,2.5 V 16"
       id="path2" />
    <path
       fill="none"
       stroke="#000"
       stroke-linecap="round"
       stroke-linejoin="round"
       stroke-miterlimit="2"
       stroke-width="2"
       d="M 47.4505,56 H 24.5495 C 19.8473,56 16,52.1527 16,47.4505 V 24.5495 C 16,19.8473 19.8473,16 24.5495,16 h 22.901 C 52.1527,16 56,19.8473 56,24.5495 v 22.901 C 56,52.1527 52.1527,56 47.4505,56 Z"
       id="path4" />
    <circle
       cx="44.834599"
       cy="29.002199"
       fill="none"
       stroke="#000"
       stroke-linecap="round"
       stroke-linejoin="round"
       stroke-miterlimit="2"
       stroke-width="2"
       id="ellipse6"
       r="2.8338001" />
    <circle
       cx="27.3342"
       cy="29.001699"
       fill="none"
       stroke="#000"
       stroke-linecap="round"
       stroke-linejoin="round"
       stroke-miterlimit="2"
       stroke-width="2"
       id="ellipse8"
       r="2.8338001" />
    <path
       fill="none"
       stroke="#000"
       stroke-miterlimit="2"
       stroke-width="2"
       d="m 44.5,47.5 h -17 c -2.2,0 -4,-1.8 -4,-4 v 0 c 0,-2.2 1.8,-4 4,-4 h 17 c 2.2,0 4,1.8 4,4 v 0 c 0,2.2 -1.8,4 -4,4 z"
       id="path10" />
    <path
       fill="none"
       stroke="#000"
       stroke-linecap="round"
       stroke-linejoin="round"
       stroke-miterlimit="2"
       stroke-width="2"
       d="m 13.5,41 v 0 C 12.1193,41 11,39.8807 11,38.5 v -8 C 11,29.1193 12.1193,28 13.5,28 v 0 c 1.3807,0 2.5,1.1193 2.5,2.5 v 8 c 0,1.3807 -1.1193,2.5 -2.5,2.5 z"
       id="path12" />
    <path
       fill="none"
       stroke="#000"
       stroke-linecap="round"
       stroke-linejoin="round"
       stroke-miterlimit="2"
       stroke-width="2"
       d="m 58.5,41 v 0 c 1.3807,0 2.5,-1.1193 2.5,-2.5 v -8 C 61,29.1193 59.8807,28 58.5,28 v 0 C 57.1193,28 56,29.1193 56,30.5 v 8 c 0,1.3807 1.1193,2.5 2.5,2.5 z"
       id="path14" />
    <line
       x1="28"
       x2="28"
       y1="40"
       y2="47"
       fill="none"
       stroke="#000"
       stroke-linecap="round"
       stroke-linejoin="round"
       stroke-miterlimit="2"
       stroke-width="2"
       id="line16" />
    <line
       x1="33"
       x2="33"
       y1="40"
       y2="47"
       fill="none"
       stroke="#000"
       stroke-linecap="round"
       stroke-linejoin="round"
       stroke-miterlimit="2"
       stroke-width="2"
       id="line18" />
    <line
       x1="38"
       x2="38"
       y1="40"
       y2="47"
       fill="none"
       stroke="#000"
       stroke-linecap="round"
       stroke-linejoin="round"
       stroke-miterlimit="2"
       stroke-width="2"
       id="line20" />
    <line
       x1="43"
       x2="43"
       y1="40"
       y2="47"
       fill="none"
       stroke="#000"
       stroke-linecap="round"
       stroke-linejoin="round"
       stroke-miterlimit="2"
       stroke-width="2"
       id="line22" />
  </g>
</g></svg>
